assets/dist/images/clock.svg

<svg xmlns="http://www.w3.org/2000/svg" viewBox="0 0 12 12" enable-background="new 0 0 12 12"><path fill="#FB5853" d="M6 12c-3.312 0-6-2.688-6-6s2.688-6 6-6 6 2.688 6 6-2.688 6-6 6zm0-10.25c-2.344 0-4.25 1.906-4.25 4.25s1.906 4.25 4.25 4.25 4.25-1.906 4.25-4.25-1.906-4.25-4.25-4.25zm1 5c0 .141-.109.25-.25.25h-2.5c-.141 0-.25-.109-.25-.25v-.5c0-.141.109-.25.25-.25h1.75v-2.75c0-.141.109-.25.25-.25h.5c.141 0 .25.109.25.25v3.5z"/></svg>

<svg xmlns="http://www.w3.org/2000/svg" viewBox="0 0 12 12" enable-background="new 0 0 12 12"><path fill="#FB5853" d="M6 12c-3.312 0-6-2.688-6-6s2.688-6 6-6 6 2.688 6 6-2.688 6-6 6zM6 1.75C3.656 1.75 1.75 3.656 1.75 6S3.656 10.25 6 10.25 10.25 8.344 10.25 6 8.344 1.75 6 1.75zm1 5c0 .14-.11.25-.25.25h-2.5C4.11 7 4 6.89 4 6.75v-.5c0-.14.11-.25.25-.25H6V3.25c0-.14.11-.25.25-.25h.5c.14 0 .25.11.25.25v3.5z"/></svg>
